X: 20139
T: Jionetto Loula
R: waltz
M: 3/4
K: Amajor
|E2A2B2|c4B2|c4d2|c6|B2A2B2|c2B2A2|c4d2|c6|
c2d2c2|B4c2|e2d2c2|B6|c4B2|A4B2|c2d2B2|c6|
E2A2c2|e2d2c2|B2c2B2|A6||
|:"E"E2A2B2|"A"c2B2d2|"F#m"cB A2B2|"E"c2B4|"E"E2A2B2|"A"c2B2d2|"E"cB A2G2|"A"A6:|
|:"A"e2c2e2|"E"d2B2d2|"F#m"cB A2B2|"E"c2B4|"A"e2c2e2|"D"d2B2d2|"E"cBA2G2|"A"A6:|
E6-|E2F2G2|A4B2|A2B2c2|d2c2d2|e2d2c2|e4f2|e6-|
e2f2e2|d6|c2B2A2|G2F2E2-|E2F2G2|E2F2G2|A2B2G2|A6-|
A2z2z2|c2B2A2|G6|A6||
|:c4d2|e4f2|e2c2d2|e2d4|c4d2|e4f2|e2c2B2|A6:|
|:c2A2c2|B2G2B2|A2F2G2|A2G4|c2A2G2|F4G2|A4B2|A6:|
c4d2|e4d2|e4f2|e6|

